outputs/icons/social/point_money_round.svg

<svg xmlns="http://www.w3.org/2000/svg" width="1200" height="1200" fill="none"><path fill="#000" d="M250 550H50v550h200zM1000 850H650l-104.5-36.5 16.5-47 88 33.5h141c32.5 0 59-26.5 59-59 0-24.5-15.5-46.5-38.5-55.5L448.5 550H350v451l350 99 400.5-150c-.5-55-45-100-100.5-100M925 150c-124.2 0-225 100.8-225 225s100.8 225 225 225 225-100.8 225-225-100.8-225-225-225m19.8 354.6v27.9h-39.375v-29.025c-16.65-4.05-53.775-17.325-67.95-66.6L874.6 421.8c1.35 4.95 13.05 47.025 54 47.025 20.925 0 44.55-10.8 44.55-36.225 0-21.6-15.75-32.85-51.3-45.675-24.75-8.775-75.375-23.175-75.375-74.475 0-2.25.225-54 58.95-66.6V217.5H944.8v27.9c41.4 7.2 56.475 40.275 59.85 50.175L969.1 310.65c-2.475-7.875-13.275-30.15-42.75-30.15-15.75 0-40.725 8.325-40.725 31.275 0 21.375 19.35 29.475 59.4 42.75 54 18.675 67.725 46.125 67.725 77.625 0 59.175-56.25 70.425-67.95 72.45"/></svg>

<svg width="1200" height="1200" viewBox="0 0 1200 1200" fill="none" xmlns="http://www.w3.org/2000/svg"><path d="M250 550H50V1100H250V550Z" fill="#1D1E23"/><path d="M1000 850H650L545.5 813.5L562 766.5L650 800H791C823.5 800 850 773.5 850 741C850 716.5 834.5 694.5 811.5 685.5L448.5 550H350V1001L700 1100L1100.5 950C1100 895 1055.5 850 1000 850Z" fill="#1D1E23"/><path d="M925 150C800.8 150 700 250.8 700 375C700 499.2 800.8 600 925 600C1049.2 600 1150 499.2 1150 375C1150 250.8 1049.2 150 925 150ZM944.8 504.6V532.5H905.425V503.475C888.775 499.425 851.65 486.15 837.475 436.875L874.6 421.8C875.95 426.75 887.65 468.825 928.6 468.825C949.525 468.825 973.15 458.025 973.15 432.6C973.15 411 957.4 399.75 921.85 386.925C897.1 378.15 846.475 363.75 846.475 312.45C846.475 310.2 846.7 258.45 905.425 245.85V217.5H944.8V245.4C986.2 252.6 1001.275 285.675 1004.65 295.575L969.1 310.65C966.625 302.775 955.825 280.5 926.35 280.5C910.6 280.5 885.625 288.825 885.625 311.775C885.625 333.15 904.975 341.25 945.025 354.525C999.025 373.2 1012.75 400.65 1012.75 432.15C1012.75 491.325 956.5 502.575 944.8 504.6Z" fill="#1D1E23"/></svg>
